TrafficJam2023/images/icons/planet.svg

<svg width="17" height="12" viewBox="0 0 17 12" fill="none" xmlns="http://www.w3.org/2000/svg">
<path d="M3.03137 6.58469C3.32388 9.34375 5.66459 11.5 8.50031 11.5C9.27015 11.5009 10.0315 11.3391 10.7345 11.0253C9.47504 10.5087 8.1078 9.8325 6.7415 9.04531C5.40645 8.27687 4.12016 7.42187 3.03137 6.58469ZM15.8981 8.60969C15.6324 8.25625 15.2731 7.86594 14.8355 7.45344C14.7521 7.81692 14.637 8.17244 14.4918 8.51594C15.3893 9.43781 15.5293 9.93281 15.4971 10.03C15.4346 10.0997 14.9643 10.2453 13.6799 9.91968C13.4959 9.87302 13.2947 9.81614 13.0761 9.74906C12.9353 9.70573 12.7916 9.65896 12.6451 9.60875C12.8752 9.34488 13.0797 9.05975 13.2558 8.75719C13.2611 8.74812 13.2667 8.73906 13.272 8.72969C13.7492 7.89908 14.0004 6.95792 14.0005 6C14.0006 5.80167 13.9902 5.60347 13.9693 5.40625C13.6702 2.65094 11.3317 0.500001 8.50031 0.500001C7.29897 0.499325 6.13068 0.893388 5.17519 1.62156C4.59607 2.06232 4.1094 2.61279 3.74296 3.24156C3.73796 3.25062 3.73233 3.25969 3.72702 3.26875C3.55286 3.57215 3.40813 3.89153 3.29481 4.2225C3.17835 4.12104 3.06595 4.02031 2.95762 3.92031C2.78917 3.76406 2.63979 3.61937 2.50697 3.48281C1.58288 2.53719 1.47287 2.0575 1.50194 1.96875C1.56944 1.89281 2.06758 1.76438 3.31857 2.07969C3.54448 1.78217 3.7954 1.50449 4.06859 1.24969C3.4792 1.07438 2.95011 0.957501 2.50447 0.905938C1.54413 0.795938 0.915667 0.985001 0.63597 1.46875C0.534716 1.64313 0.437525 1.94031 0.550967 2.3625C0.718785 2.98938 1.31693 3.75 2.16352 4.54687C2.43322 4.80094 2.72792 5.05844 3.04231 5.31687C3.27106 5.50437 3.51107 5.69375 3.75796 5.88187C3.92275 6.00687 4.09099 6.13187 4.26266 6.25687C4.43433 6.38187 4.6083 6.50458 4.78456 6.625C5.57865 7.17531 6.41774 7.70375 7.24058 8.17781C7.53934 8.34989 7.83769 8.51656 8.13561 8.67781C8.43354 8.83906 8.72907 8.99333 9.02221 9.14062C9.70661 9.48437 10.3769 9.79437 11.0179 10.0603C11.2927 10.1745 11.5616 10.2803 11.8245 10.3778C12.1961 10.5159 12.5548 10.6375 12.8967 10.74L12.9311 10.7503C13.7352 10.9897 14.413 11.1156 14.9462 11.1253H15.0005C15.6768 11.1253 16.135 10.9259 16.3625 10.5316C16.6465 10.0434 16.49 9.39656 15.8981 8.60969Z" fill="#FDFDFD"/>
</svg>

<svg xmlns="http://www.w3.org/2000/svg" width="17" height="12" fill="none" viewBox="0 0 17 12"><path fill="#FDFDFD" d="M3.031 6.585a5.507 5.507 0 0 0 5.47 4.915c.77 0 1.53-.16 2.234-.475a33.955 33.955 0 0 1-3.993-1.98 34.17 34.17 0 0 1-3.71-2.46ZM15.898 8.61a9.453 9.453 0 0 0-1.063-1.157 6.412 6.412 0 0 1-.343 1.063c.897.922 1.037 1.417 1.005 1.514-.062.07-.533.215-1.817-.11a12.787 12.787 0 0 1-1.035-.311c.23-.264.435-.55.61-.852l.017-.027a5.48 5.48 0 0 0 .697-3.324A5.51 5.51 0 0 0 8.5.5a5.48 5.48 0 0 0-3.325 1.122c-.579.44-1.066.99-1.432 1.62l-.016.027a5.484 5.484 0 0 0-.432.954 12.275 12.275 0 0 1-.788-.74c-.924-.946-1.034-1.425-1.005-1.514.067-.076.566-.205 1.817.11.225-.297.476-.575.75-.83A9.457 9.457 0 0 0 2.504.907C1.544.796.916.985.636 1.469c-.101.174-.198.471-.085.893.168.627.766 1.388 1.613 2.185.27.254.564.511.878.77a25.768 25.768 0 0 0 1.743 1.308 35.277 35.277 0 0 0 3.35 2.053 32.82 32.82 0 0 0 2.883 1.382c.275.114.544.22.806.318.372.138.73.26 1.073.362l.034.01c.804.24 1.482.366 2.015.375h.055c.676 0 1.134-.2 1.362-.593.284-.489.127-1.135-.465-1.922Z"/></svg>
